public/assets/tarot.svg

<svg width="795" height="396" viewBox="0 0 795 396" fill="none" xmlns="http://www.w3.org/2000/svg">
<path fill-rule="evenodd" clip-rule="evenodd" d="M130.644 42.8398C137.061 54.8003 136.298 85.139 128.005 87.2766C124.698 88.1291 117.653 86.041 110.482 81.7191L114.983 113.561H88.4065L97.5549 70.9168C92.4528 64.9276 88.9997 57.588 89.5767 49.3637C91.2395 25.6662 124.227 30.8794 130.644 42.8398Z" fill="#804C2D"/>
<mask id="mask0" style="mask-type:alpha" maskUnits="userSpaceOnUse" x="73" y="23" width="59" height="59">
<path fill-rule="evenodd" clip-rule="evenodd" d="M129.84 36.1038C130.319 34.7244 133.582 30.4508 127.771 26.3793C126.727 25.6477 125.002 26.3769 123.507 25.9151C122.382 25.5677 122.003 23.9988 120.714 23.7251C119.377 23.4411 117.92 24.728 116.408 24.615C115.482 24.5457 114.053 23.1023 113.089 23.0246C111.368 22.8858 109.804 24.5105 108.123 24.615C107.149 24.6755 106.018 23.1075 105.051 23.0246C102.697 22.8227 100.553 23.9201 98.4787 24.2529C96.5669 24.5597 95.6779 28.4776 94.2696 29.4035C89.8504 32.3092 86.388 33.1216 82.802 36.1038C78.5391 39.6489 77.7232 42.2864 75.9572 44.6487C74.1913 47.0111 73.1004 55.3343 74.1303 60.6684C74.7378 63.8149 76.3209 72.4081 79.8576 75.7351C84.6983 80.2888 94.5464 81.638 95.4206 81.0305C99.4695 78.2166 108.546 62.6533 114.983 57.1529C119.716 53.1082 126.875 44.6487 129.84 36.1038Z" fill="white"/>
</mask>
<g mask="url(#mask0)">
<path fill-rule="evenodd" clip-rule="evenodd" d="M129.84 36.1038C130.319 34.7244 133.582 30.4508 127.771 26.3793C126.727 25.6477 125.002 26.3769 123.507 25.9151C122.382 25.5677 122.003 23.9988 120.714 23.7251C119.377 23.4411 117.92 24.728 116.408 24.615C115.482 24.5457 114.053 23.1023 113.089 23.0246C111.368 22.8858 109.804 24.5105 108.123 24.615C107.149 24.6755 106.018 23.1075 105.051 23.0246C102.697 22.8227 100.553 23.9201 98.4787 24.2529C96.5669 24.5597 95.6779 28.4776 94.2696 29.4035C89.8504 32.3092 86.388 33.1216 82.802 36.1038C78.5391 39.6489 77.7232 42.2864 75.9572 44.6487C74.1913 47.0111 73.1004 55.3343 74.1303 60.6684C74.7378 63.8149 76.3209 72.4081 79.8576 75.7351C84.6983 80.2888 94.5464 81.638 95.4206 81.0305C99.4695 78.2166 108.546 62.6533 114.983 57.1529C119.716 53.1082 126.875 44.6487 129.84 36.1038Z" fill="#FFA434"/>
<path fill-rule="evenodd" clip-rule="evenodd" d="M110.686 21.3653C107.075 36.6018 104.275 47.2712 102.287 53.3734C100.27 59.5624 98.6277 64.8055 97.2149 69.0961C100.122 62.6563 103.862 54.3925 107.244 45.9158C109.669 39.8381 112.248 32.0554 114.983 22.5676H118.274C113.089 37.3432 109.189 47.6614 106.574 53.5224C102.366 62.953 99.3435 70.1142 96.9352 74.9195C100.969 69.0059 107.174 59.3588 113.79 46.3849C116.297 41.4669 119.249 33.9367 122.646 23.7944L125.709 25.1047C120.567 37.9418 116.593 46.8938 113.79 51.9607C104.65 68.4765 95.9234 78.4415 92.873 81.2697C92.346 81.7583 92.1693 81.8727 92.2947 81.6239C92.2534 81.6164 92.2225 81.591 92.2024 81.5473C91.988 81.8721 91.7745 82.1566 91.5608 82.4009C88.4847 85.9191 96.3558 66.3072 102.157 45.7385C103.934 39.4407 105.686 31.4309 107.413 21.7093L110.686 21.3653Z" fill="black" fill-opacity="0.2"/>
</g>
<path fill-rule="evenodd" clip-rule="evenodd" d="M40.3733 251.978H125.92L137.129 389.287H9.78578L40.3733 251.978Z" fill="#C5CFD6"/>
<path fill-rule="evenodd" clip-rule="evenodd" d="M40.3733 251.978H66.6837L82.4311 389.287H9.78578L40.3733 251.978Z" fill="black" fill-opacity="0.1"/>
<path fill-rule="evenodd" clip-rule="evenodd" d="M269.078 383.751C247.246 357.091 232.474 337.326 224.762 324.457C211.557 302.422 200.749 282.815 197.338 275.325C189.205 257.465 216.062 249.102 222.14 257.432C231.34 270.041 250.988 309.717 281.083 376.461L269.078 383.751Z" fill="#804C2D"/>
<path fill-rule="evenodd" clip-rule="evenodd" d="M224.34 375.999L183.71 273.722C175.019 255.078 216.986 242.822 223.372 251.499C237.872 271.198 272.334 348.907 276.653 354.776L224.34 375.999Z" fill="#7D3336"/>
<path fill-rule="evenodd" clip-rule="evenodd" d="M116.126 355.488C124.041 343.943 152.83 305.101 168.51 289.03C173.016 284.412 177.413 279.98 181.571 275.849C193.931 263.571 218.545 284.207 206.207 295.39C175.482 323.24 130.653 360.836 126.907 364.189C121.657 368.887 111.152 362.744 116.126 355.488Z" fill="#804C2D"/>
<path fill-rule="evenodd" clip-rule="evenodd" d="M117.977 350.273C115.251 352.517 113.477 354.351 112.657 355.772C111.658 357.502 110.489 360.192 109.15 363.842C111.156 365 129.186 375.409 163.238 395.07C167.327 391.235 167.964 388.258 165.149 386.139C162.335 384.02 160.012 382.233 158.182 380.778L139.512 355.056C139.153 354.561 138.461 354.451 137.966 354.81C137.957 354.816 137.949 354.823 137.941 354.829L134.062 357.816C130.503 357.505 127.847 356.844 126.095 355.832C124.671 355.01 123.036 353.3 121.191 350.701L121.191 350.701C120.483 349.703 119.1 349.469 118.103 350.177C118.06 350.207 118.018 350.239 117.977 350.273Z" fill="#020000"/>
<path fill-rule="evenodd" clip-rule="evenodd" d="M259.687 379.766C258.448 383.073 257.829 385.548 257.829 387.19C257.829 389.186 258.161 392.1 258.827 395.931C261.143 395.931 281.962 395.931 321.282 395.931C322.905 390.566 321.969 387.669 318.472 387.241C314.975 386.813 312.07 386.427 309.757 386.082L280.728 373.141C280.17 372.892 279.515 373.143 279.266 373.702C279.262 373.711 279.258 373.721 279.254 373.73L277.388 378.257C274.151 379.767 271.52 380.522 269.496 380.522C267.852 380.522 265.581 379.858 262.684 378.53L262.684 378.53C261.572 378.02 260.257 378.508 259.748 379.62C259.726 379.668 259.705 379.717 259.687 379.766Z" fill="#020000"/>
<path fill-rule="evenodd" clip-rule="evenodd" d="M169.089 278.831C135.319 273.329 112.699 269.567 101.23 267.545C68.5381 261.78 59.0049 244.188 64.6414 205.804H124.876C132.847 208.106 166.153 222.343 224.794 248.514C235.345 253.751 233.38 269.194 231.452 274.282C231.373 274.489 213.586 304.967 178.092 365.715L128.818 334.325L169.182 282.53C170.248 280.383 170.217 279.15 169.089 278.831Z" fill="#B86767"/>
<path fill-rule="evenodd" clip-rule="evenodd" d="M37.8101 192.204L60.9505 192.295C46.6624 238.419 38.9489 262.893 37.8101 265.715C35.2478 272.065 40.67 281.736 42.9888 286.933C35.4367 290.312 36.2414 277.797 26.7146 282.23C18.0191 286.275 11.4044 293.605 1.3579 287.406C0.122745 286.644 -1.23078 283.775 2.03951 281.532C10.187 275.946 21.928 266.168 23.5144 262.95C25.6778 258.561 30.443 234.979 37.8101 192.204ZM177.043 187.888L208.411 218.489C217.538 222.382 225.016 226.681 230.846 231.386C232.157 232.967 233.584 235.997 227.416 234.641C221.248 233.285 214.699 232.137 213.54 234.143C212.38 236.148 215.796 239.222 213.654 241.848C212.226 243.598 207.422 238.031 199.243 225.147L166.624 205.915L177.043 187.888Z" fill="#804C2D"/>
<path fill-rule="evenodd" clip-rule="evenodd" d="M103.571 95.1039L113.147 93.4616C129.632 134.644 158.414 172.063 199.493 205.719L168.452 243.431C127.378 195.509 102.06 146.067 103.571 95.1039Z" fill="#BB9C66"/>
<path fill-rule="evenodd" clip-rule="evenodd" d="M61.8305 215.436H147.095C127.341 167.405 117.464 126.604 117.464 93.0318L91.7443 89.1996C71.5306 121.709 65.8223 161.735 61.8305 215.436Z" fill="#C7D1D9"/>
<path fill-rule="evenodd" clip-rule="evenodd" d="M92.8888 89.1996C94.8977 89.2688 97.9576 89.3934 102.068 89.5735L108.283 107.334C108.941 128.989 112.78 172.629 119.801 238.253L63.908 238.253C64.0545 242.786 64.2961 247.36 64.6327 251.978H23.0738C29.2903 181.844 51.9921 127.584 91.1793 89.1996L91.1993 89.2184L91.2099 89.1996H92.8888Z" fill="#F7D59C"/>
<path fill-rule="evenodd" clip-rule="evenodd" d="M79.5479 238.69L63.9223 238.689C63.2383 218.362 64.4641 198.886 67.5997 180.261C69.1909 208.514 73.1735 227.99 79.5479 238.69Z" fill="black" fill-opacity="0.1"/>
<path fill-rule="evenodd" clip-rule="evenodd" d="M76.3487 204.362L103.909 191.55V204.362H76.3487Z" fill="white" fill-opacity="0.2"/>
<path fill-rule="evenodd" clip-rule="evenodd" d="M655.696 75.2315C642.409 75.2315 637.576 59.3232 630.027 50.5931C624.626 44.347 615.407 46.2095 612.679 37.465C605.817 15.4762 624.182 0 648.139 0C672.097 0 688.25 13.5731 691.738 33.977C695.226 54.381 679.654 75.2315 655.696 75.2315Z" fill="#2C1B18"/>
<path fill-rule="evenodd" clip-rule="evenodd" d="M619.488 31.5473C612.751 44.1052 613.551 75.9594 622.259 78.2039C625.731 79.0989 633.128 76.9065 640.657 72.3687L635.931 105.801H663.835L654.229 61.0267C659.586 54.7384 663.212 47.0321 662.606 38.3971C660.86 13.5158 626.225 18.9893 619.488 31.5473Z" fill="#57331F"/>
<path fill-rule="evenodd" clip-rule="evenodd" d="M617.814 31.6177C623.15 32.6195 633.897 37.7142 642.466 45.0222C643.479 44.4854 644.641 44.1807 645.876 44.1807C649.829 44.1807 653.034 47.3039 653.034 51.1566C653.034 52.7291 652.5 54.1801 651.599 55.3468C653.295 58.1426 654.453 61.0796 654.832 64.099C660.711 64.099 682.165 41.8554 660.792 20.9277C639.419 -5.01737e-06 608.533 29.8754 617.814 31.6177Z" fill="#2C1B18"/>
<path fill-rule="evenodd" clip-rule="evenodd" d="M714.267 251.132H624.448L612.679 395.301H746.382L714.267 251.132Z" fill="#C5CFD6"/>
<path fill-rule="evenodd" clip-rule="evenodd" d="M714.267 251.132H686.643L670.109 395.301H746.382L714.267 251.132Z" fill="black" fill-opacity="0.1"/>
<path fill-rule="evenodd" clip-rule="evenodd" d="M522.047 226.434L521.712 226.239C512.101 220.854 496.404 228.166 496.415 236.295C496.448 260.902 518.905 376.874 520.077 384.206C521.25 391.537 533.81 393.473 534.541 384.23C535.705 369.521 537.867 318.605 535.704 295.037C534.811 285.308 533.849 276.043 532.902 267.777C544.684 289.055 562.908 319.524 587.574 359.182L600.964 353.065C590.449 318.422 581.827 293.966 575.099 279.695C563.577 255.26 552.774 234.334 548.227 226.963C541.075 215.369 528.625 219.415 522.047 226.434Z" fill="#57331F"/>
<path fill-rule="evenodd" clip-rule="evenodd" d="M600.006 333.826L554.05 224.958C543.041 207.248 512.174 228.562 515.928 238.834C524.452 262.154 567.802 337.65 570.341 344.598L600.006 333.826Z" fill="#7D3336"/>
<path fill-rule="evenodd" clip-rule="evenodd" d="M602.559 346.199C605.421 348.556 607.283 350.481 608.145 351.974C609.194 353.789 610.421 356.614 611.827 360.446C609.721 361.662 590.791 372.592 555.038 393.234C550.745 389.207 550.076 386.081 553.031 383.857C555.986 381.632 558.425 379.756 560.347 378.228L579.948 351.221C580.325 350.702 581.052 350.586 581.572 350.963C581.581 350.97 581.59 350.976 581.598 350.983L585.671 354.119C589.408 353.793 592.196 353.099 594.036 352.036C595.531 351.173 597.247 349.377 599.185 346.648L599.185 346.648C599.928 345.601 601.38 345.355 602.427 346.098C602.472 346.13 602.516 346.164 602.559 346.199Z" fill="black"/>
<path fill-rule="evenodd" clip-rule="evenodd" d="M537.482 378.329C538.783 381.801 539.433 384.399 539.433 386.123C539.433 388.219 539.084 391.279 538.385 395.301C535.953 395.301 514.095 395.301 472.81 395.301C471.106 389.668 472.09 386.626 475.761 386.177C479.433 385.728 482.483 385.322 484.911 384.96L515.39 371.373C515.976 371.111 516.663 371.375 516.925 371.961C516.929 371.971 516.934 371.981 516.938 371.991L518.897 376.744C522.296 378.33 525.058 379.122 527.183 379.122C528.909 379.122 531.293 378.425 534.335 377.031V377.031C535.503 376.495 536.883 377.008 537.418 378.175C537.441 378.226 537.462 378.277 537.482 378.329Z" fill="black"/>
<path fill-rule="evenodd" clip-rule="evenodd" d="M493.194 244.66C493.194 275.548 507.863 347.598 507.872 354.399L539.433 354.423C534.813 290.134 533.175 257.643 534.519 256.951C536.534 255.912 617.125 264.997 641.296 264.997C676.15 264.997 690.568 243.018 691.738 202.301H622.693C608.635 203.805 535.307 218.596 508.074 223.68C496.415 225.857 493.194 236.151 493.194 244.66Z" fill="#B86767"/>
<path fill-rule="evenodd" clip-rule="evenodd" d="M736.49 175.56L712.666 180.287C736.625 224.939 749.474 248.605 751.213 251.284C755.124 257.312 751.475 268.36 750.126 274.178C758.584 276.146 755.249 263.416 765.952 266.074C775.722 268.5 784.006 274.726 793.115 266.329C794.235 265.297 795.055 262.07 791.237 260.415C781.723 256.291 767.667 248.57 765.388 245.573C762.28 241.485 752.648 218.148 736.49 175.56ZM500.847 139.815L501.279 140.448C504.87 145.736 508.23 151.283 506.79 153.127C505.294 155.045 500.958 152.928 499.245 156.047C498.103 158.125 505.411 160.612 521.171 163.507L552.722 187.697L566.173 170.464L524.046 151.963C516.666 144.609 509.54 139.02 502.667 135.195C500.612 134.541 497.101 134.343 500.847 139.815Z" fill="#57331F"/>
<path fill-rule="evenodd" clip-rule="evenodd" d="M647.912 86.4222L637.859 84.6978C615.962 105.94 607.026 156.972 592.433 163.727C578.636 170.114 559.077 163.934 535.829 155.589L528.709 171.496C549.833 194.349 594.833 213.657 613.074 202.634C642.237 185.012 648.97 122.071 647.912 86.4222Z" fill="#95AB97"/>
<path fill-rule="evenodd" clip-rule="evenodd" d="M691.738 212.765C651.427 212.765 621.776 212.765 602.783 212.765C598.718 212.765 599.484 206.896 600.072 203.934C606.853 169.751 633.326 132.904 633.326 84.2465L658.985 80.2229C680.208 114.356 687.547 156.382 691.738 212.765Z" fill="#C7D1D9"/>
<path fill-rule="evenodd" clip-rule="evenodd" d="M650.48 80.2229C627.446 158.745 621.095 211.064 631.429 237.181H711.503C710.236 218.07 706.174 197.859 700.609 178.153C718.744 210.866 733.987 234.417 746.338 248.807L764.984 245.155C752.973 170.666 718.192 115.689 660.64 80.2229L650.48 80.2229Z" fill="#CEE5D0"/>
<path fill-rule="evenodd" clip-rule="evenodd" d="M342.587 386H338.313L366.945 195.627H375.493L342.587 386Z" fill="#EA9800"/>
<path fill-rule="evenodd" clip-rule="evenodd" d="M467.719 384.373H472L444.175 195.627H435.612L467.719 384.373Z" fill="#EA9800"/>
<path fill-rule="evenodd" clip-rule="evenodd" d="M317.365 386H313L342.242 195.627H350.97L317.365 386Z" fill="#FFB700"/>
<path fill-rule="evenodd" clip-rule="evenodd" d="M452.606 386H456.97L427.729 195.627H419L452.606 386Z" fill="#FFB700"/>
<path fill-rule="evenodd" clip-rule="evenodd" d="M329.612 211.898H451.433V194H329.612V211.898Z" fill="#FFB700"/>
</svg>

<svg width="795" height="396" fill="none" xmlns="http://www.w3.org/2000/svg"><path fill-rule="evenodd" clip-rule="evenodd" d="M130.644 42.84c6.417 11.96 5.654 42.299-2.639 44.437-3.307.852-10.352-1.236-17.523-5.558l4.501 31.842H88.406l9.149-42.644c-5.102-5.99-8.555-13.329-7.978-21.553 1.663-23.698 34.65-18.485 41.067-6.524Z" fill="#804C2D"/><mask id="a" style="mask-type:alpha" maskUnits="userSpaceOnUse" x="73" y="23" width="59" height="59"><path fill-rule="evenodd" clip-rule="evenodd" d="M129.84 36.104c.479-1.38 3.742-5.653-2.069-9.725-1.044-.731-2.769-.002-4.264-.464-1.125-.347-1.504-1.916-2.793-2.19-1.337-.284-2.794 1.003-4.306.89-.926-.07-2.355-1.513-3.319-1.59-1.721-.14-3.285 1.486-4.966 1.59-.974.06-2.105-1.507-3.072-1.59-2.354-.202-4.498.895-6.572 1.228-1.912.307-2.801 4.225-4.21 5.15-4.419 2.906-7.881 3.719-11.467 6.7-4.263 3.546-5.079 6.183-6.845 8.546-1.766 2.362-2.857 10.685-1.827 16.02.608 3.146 2.19 11.74 5.728 15.066 4.84 4.554 14.688 5.903 15.563 5.296 4.048-2.814 13.125-18.378 19.562-23.878 4.733-4.045 11.892-12.504 14.857-21.05Z" fill="#fff"/></mask><g mask="url(#a)" fill-rule="evenodd" clip-rule="evenodd"><path d="M129.84 36.104c.479-1.38 3.742-5.653-2.069-9.725-1.044-.731-2.769-.002-4.264-.464-1.125-.347-1.504-1.916-2.793-2.19-1.337-.284-2.794 1.003-4.306.89-.926-.07-2.355-1.513-3.319-1.59-1.721-.14-3.285 1.486-4.966 1.59-.974.06-2.105-1.507-3.072-1.59-2.354-.202-4.498.895-6.572 1.228-1.912.307-2.801 4.225-4.21 5.15-4.419 2.906-7.881 3.719-11.467 6.7-4.263 3.546-5.079 6.183-6.845 8.546-1.766 2.362-2.857 10.685-1.827 16.02.608 3.146 2.19 11.74 5.728 15.066 4.84 4.554 14.688 5.903 15.563 5.296 4.048-2.814 13.125-18.378 19.562-23.878 4.733-4.045 11.892-12.504 14.857-21.05Z" fill="#FFA434"/><path d="M110.686 21.365c-3.611 15.237-6.411 25.906-8.399 32.008-2.017 6.19-3.66 11.432-5.072 15.723 2.907-6.44 6.647-14.704 10.029-23.18 2.425-6.078 5.004-13.86 7.739-23.348h3.291c-5.185 14.775-9.085 25.093-11.7 30.954-4.208 9.431-7.23 16.592-9.639 21.398 4.034-5.914 10.239-15.561 16.855-28.535 2.507-4.918 5.459-12.448 8.856-22.59l3.063 1.31c-5.142 12.837-9.116 21.789-11.919 26.856-9.14 16.516-17.867 26.48-20.917 29.309-.527.488-.704.603-.578.354-.042-.008-.073-.033-.093-.077-.214.325-.427.61-.641.854-3.076 3.518 4.795-16.094 10.596-36.662 1.777-6.298 3.529-14.308 5.256-24.03l3.273-.344Z" fill="#000" fill-opacity=".2"/></g><path fill-rule="evenodd" clip-rule="evenodd" d="M40.373 251.978h85.547l11.209 137.309H9.786l30.587-137.309Z" fill="#C5CFD6"/><path fill-rule="evenodd" clip-rule="evenodd" d="M40.373 251.978h26.31l15.748 137.309H9.786l30.587-137.309Z" fill="#000" fill-opacity=".1"/><path fill-rule="evenodd" clip-rule="evenodd" d="M269.078 383.751c-21.832-26.66-36.604-46.425-44.316-59.294-13.205-22.035-24.013-41.642-27.424-49.132-8.133-17.86 18.724-26.223 24.802-17.893 9.2 12.609 28.848 52.285 58.943 119.029l-12.005 7.29Z" fill="#804C2D"/><path fill-rule="evenodd" clip-rule="evenodd" d="m224.34 375.999-40.63-102.277c-8.691-18.644 33.276-30.9 39.662-22.223 14.5 19.699 48.962 97.408 53.281 103.277l-52.313 21.223Z" fill="#7D3336"/><path fill-rule="evenodd" clip-rule="evenodd" d="M116.126 355.488c7.915-11.545 36.704-50.387 52.384-66.458 4.506-4.618 8.903-9.05 13.061-13.181 12.36-12.278 36.974 8.358 24.636 19.541-30.725 27.85-75.554 65.446-79.3 68.799-5.25 4.698-15.755-1.445-10.781-8.701Z" fill="#804C2D"/><path fill-rule="evenodd" clip-rule="evenodd" d="M117.977 350.273c-2.726 2.244-4.5 4.078-5.32 5.499-.999 1.73-2.168 4.42-3.507 8.07l54.088 31.228c4.089-3.835 4.726-6.812 1.911-8.931a345.3 345.3 0 0 1-6.967-5.361l-18.67-25.722a1.107 1.107 0 0 0-1.546-.246l-.025.019-3.879 2.987c-3.559-.311-6.215-.972-7.967-1.984-1.424-.822-3.059-2.532-4.904-5.131a2.214 2.214 0 0 0-3.214-.428ZM259.687 379.766c-1.239 3.307-1.858 5.782-1.858 7.424 0 1.996.332 4.91.998 8.741h62.455c1.623-5.365.687-8.262-2.81-8.69a345.523 345.523 0 0 1-8.715-1.159l-29.029-12.941a1.107 1.107 0 0 0-1.462.561l-.012.028-1.866 4.527c-3.237 1.51-5.868 2.265-7.892 2.265-1.644 0-3.915-.664-6.812-1.992a2.214 2.214 0 0 0-2.997 1.236Z" fill="#020000"/><path fill-rule="evenodd" clip-rule="evenodd" d="M169.089 278.831c-33.77-5.502-56.39-9.264-67.859-11.286-32.692-5.765-42.225-23.357-36.589-61.741h60.235c7.971 2.302 41.277 16.539 99.918 42.71 10.551 5.237 8.586 20.68 6.658 25.768-.079.207-17.866 30.685-53.36 91.433l-49.274-31.39 40.364-51.795c1.066-2.147 1.035-3.38-.093-3.699Z" fill="#B86767"/><path fill-rule="evenodd" clip-rule="evenodd" d="m37.81 192.204 23.14.091c-14.288 46.124-22.001 70.598-23.14 73.42-2.562 6.35 2.86 16.021 5.179 21.218-7.552 3.379-6.748-9.136-16.274-4.703-8.696 4.045-15.31 11.375-25.357 5.176-1.235-.762-2.589-3.631.682-5.874 8.147-5.586 19.888-15.364 21.474-18.582 2.164-4.389 6.929-27.971 14.296-70.746Zm139.233-4.316 31.368 30.601c9.127 3.893 16.605 8.192 22.435 12.897 1.311 1.581 2.738 4.611-3.43 3.255-6.168-1.356-12.717-2.504-13.876-.498-1.16 2.005 2.256 5.079.114 7.705-1.428 1.75-6.232-3.817-14.411-16.701l-32.619-19.232 10.419-18.027Z" fill="#804C2D"/><path fill-rule="evenodd" clip-rule="evenodd" d="m103.571 95.104 9.576-1.642c16.485 41.182 45.267 78.601 86.346 112.257l-31.041 37.712c-41.074-47.922-66.392-97.364-64.881-148.327Z" fill="#BB9C66"/><path fill-rule="evenodd" clip-rule="evenodd" d="M61.83 215.436h85.265c-19.754-48.031-29.631-88.832-29.631-122.404L91.744 89.2c-20.213 32.509-25.922 72.535-29.913 126.236Z" fill="#C7D1D9"/><path fill-rule="evenodd" clip-rule="evenodd" d="M92.889 89.2c2.009.069 5.069.193 9.179.373l6.215 17.761c.658 21.655 4.497 65.295 11.518 130.919H63.908c.147 4.533.388 9.107.725 13.725h-41.56C29.29 181.844 51.994 127.584 91.18 89.2l.02.018.01-.018h1.68Z" fill="#F7D59C"/><path fill-rule="evenodd" clip-rule="evenodd" d="m79.548 238.69-15.626-.001c-.684-20.327.542-39.803 3.678-58.428 1.59 28.253 5.574 47.729 11.948 58.429Z" fill="#000" fill-opacity=".1"/><path fill-rule="evenodd" clip-rule="evenodd" d="m76.349 204.362 27.56-12.812v12.812h-27.56Z" fill="#fff" fill-opacity=".2"/><path fill-rule="evenodd" clip-rule="evenodd" d="M655.696 75.231c-13.287 0-18.12-15.908-25.669-24.638-5.401-6.246-14.62-4.384-17.348-13.128C605.817 15.476 624.182 0 648.139 0c23.958 0 40.111 13.573 43.599 33.977 3.488 20.404-12.084 41.255-36.042 41.255Z" fill="#2C1B18"/><path fill-rule="evenodd" clip-rule="evenodd" d="M619.488 31.547c-6.737 12.558-5.937 44.412 2.771 46.657 3.472.895 10.869-1.297 18.398-5.835l-4.726 33.432h27.904l-9.606-44.774c5.357-6.289 8.983-13.995 8.377-22.63-1.746-24.881-36.381-19.408-43.118-6.85Z" fill="#57331F"/><path fill-rule="evenodd" clip-rule="evenodd" d="M617.814 31.618c5.336 1.002 16.083 6.096 24.652 13.404a7.265 7.265 0 0 1 3.41-.841c3.953 0 7.158 3.123 7.158 6.976a6.83 6.83 0 0 1-1.435 4.19c1.696 2.796 2.854 5.733 3.233 8.752 5.879 0 27.333-22.244 5.96-43.171-21.373-20.928-52.259 8.947-42.978 10.69Z" fill="#2C1B18"/><path fill-rule="evenodd" clip-rule="evenodd" d="M714.267 251.132h-89.819l-11.769 144.169h133.703l-32.115-144.169Z" fill="#C5CFD6"/><path fill-rule="evenodd" clip-rule="evenodd" d="M714.267 251.132h-27.624l-16.534 144.169h76.273l-32.115-144.169Z" fill="#000" fill-opacity=".1"/><path fill-rule="evenodd" clip-rule="evenodd" d="m522.047 226.434-.335-.195c-9.611-5.385-25.308 1.927-25.297 10.056.033 24.607 22.49 140.579 23.662 147.911 1.173 7.331 13.733 9.267 14.464.024 1.164-14.709 3.326-65.625 1.163-89.193a1229.335 1229.335 0 0 0-2.802-27.26c11.782 21.278 30.006 51.747 54.672 91.405l13.39-6.117c-10.515-34.643-19.137-59.099-25.865-73.37-11.522-24.435-22.325-45.361-26.872-52.732-7.152-11.594-19.602-7.548-26.18-.529Z" fill="#57331F"/><path fill-rule="evenodd" clip-rule="evenodd" d="M600.006 333.826 554.05 224.958c-11.009-17.71-41.876 3.604-38.122 13.876 8.524 23.32 51.874 98.816 54.413 105.764l29.665-10.772Z" fill="#7D3336"/><path fill-rule="evenodd" clip-rule="evenodd" d="M602.559 346.199c2.862 2.357 4.724 4.282 5.586 5.775 1.049 1.815 2.276 4.64 3.682 8.472l-56.789 32.788c-4.293-4.027-4.962-7.153-2.007-9.377a362.709 362.709 0 0 0 7.316-5.629l19.601-27.007a1.163 1.163 0 0 1 1.624-.258l.026.02 4.073 3.136c3.737-.326 6.525-1.02 8.365-2.083 1.495-.863 3.211-2.659 5.149-5.388a2.326 2.326 0 0 1 3.374-.449ZM537.482 378.329c1.301 3.472 1.951 6.07 1.951 7.794 0 2.096-.349 5.156-1.048 9.178H472.81c-1.704-5.633-.72-8.675 2.951-9.124 3.672-.449 6.722-.855 9.15-1.217l30.479-13.587a1.162 1.162 0 0 1 1.535.588l.013.03 1.959 4.753c3.399 1.586 6.161 2.378 8.286 2.378 1.726 0 4.11-.697 7.152-2.091a2.325 2.325 0 0 1 3.147 1.298Z" fill="#000"/><path fill-rule="evenodd" clip-rule="evenodd" d="M493.194 244.66c0 30.888 14.669 102.938 14.678 109.739l31.561.024c-4.62-64.289-6.258-96.78-4.914-97.472 2.015-1.039 82.606 8.046 106.777 8.046 34.854 0 49.272-21.979 50.442-62.696h-69.045c-14.058 1.504-87.386 16.295-114.619 21.379-11.659 2.177-14.88 12.471-14.88 20.98Z" fill="#B86767"/><path fill-rule="evenodd" clip-rule="evenodd" d="m736.49 175.56-23.824 4.727c23.959 44.652 36.808 68.318 38.547 70.997 3.911 6.028.262 17.076-1.087 22.894 8.458 1.968 5.123-10.762 15.826-8.104 9.77 2.426 18.054 8.652 27.163.255 1.12-1.032 1.94-4.259-1.878-5.914-9.514-4.124-23.57-11.845-25.849-14.842-3.108-4.088-12.74-27.425-28.898-70.013Zm-235.643-35.745.432.633c3.591 5.288 6.951 10.835 5.511 12.679-1.496 1.918-5.832-.199-7.545 2.92-1.142 2.078 6.166 4.565 21.926 7.46l31.551 24.19 13.451-17.233-42.127-18.501c-7.38-7.354-14.506-12.943-21.379-16.768-2.055-.654-5.566-.852-1.82 4.62Z" fill="#57331F"/><path fill-rule="evenodd" clip-rule="evenodd" d="m647.912 86.422-10.053-1.724c-21.897 21.242-30.833 72.274-45.426 79.029-13.797 6.387-33.356.207-56.604-8.138l-7.12 15.907c21.124 22.853 66.124 42.161 84.365 31.138 29.163-17.622 35.896-80.563 34.838-116.212Z" fill="#95AB97"/><path fill-rule="evenodd" clip-rule="evenodd" d="M691.738 212.765h-88.955c-4.065 0-3.299-5.869-2.711-8.831 6.781-34.183 33.254-71.03 33.254-119.688l25.659-4.023c21.223 34.133 28.562 76.159 32.753 132.542Z" fill="#C7D1D9"/><path fill-rule="evenodd" clip-rule="evenodd" d="M650.48 80.223c-23.034 78.522-29.385 130.841-19.051 156.958h80.074c-1.267-19.111-5.329-39.322-10.894-59.028 18.135 32.713 33.378 56.264 45.729 70.654l18.646-3.652c-12.011-74.489-46.792-129.466-104.344-164.932h-10.16Z" fill="#CEE5D0"/><path fill-rule="evenodd" clip-rule="evenodd" d="M342.587 386h-4.274l28.632-190.373h8.548L342.587 386ZM467.719 384.373H472l-27.825-188.746h-8.563l32.107 188.746Z" fill="#EA9800"/><path fill-rule="evenodd" clip-rule="evenodd" d="M317.365 386H313l29.242-190.373h8.728L317.365 386ZM452.606 386h4.364l-29.241-190.373H419L452.606 386Z" fill="#FFB700"/><path fill-rule="evenodd" clip-rule="evenodd" d="M329.612 211.898h121.821V194H329.612v17.898Z" fill="#FFB700"/></svg>
